lib/brands/logos/sonar-qube.svg

<svg xmlns="http://www.w3.org/2000/svg" fill="none" aria-hidden="true" viewBox="0 0 206 57"><g id="SonarQube"><g id="Group"><g id="Vector"><path fill="#499CD2" d="M193.332 45.5284H190.972C190.972 26.52 175.287 11.0563 156.01 11.0563V8.6964C176.59 8.6964 193.332 25.2154 193.332 45.5284Z"/><path fill="#489CD2" d="M194.962 32.8497C192.131 20.9258 182.468 10.9731 170.352 7.49409L170.895 5.60269C183.683 9.27517 193.882 19.789 196.875 32.3941L194.962 32.8497Z"/><path fill="#489CD2" d="M197.62 21.6596C194.7 15.2931 189.722 9.74043 183.612 6.02637L184.429 4.68176C190.809 8.56049 195.997 14.353 199.047 21.0025L197.62 21.6596Z"/></g><g id="Vector_2"><path fill="#070707" fill-rule="evenodd" d="M107.955 41.9626C104.802 44.105 100.496 43.2832 98.3524 40.1303C96.2084 36.9775 97.0318 32.6703 100.185 30.523C103.336 28.3806 107.643 29.204 109.787 32.3569C111.933 35.5082 111.111 39.817 107.955 41.9626ZM112.233 30.6941C109.172 26.1823 103.029 25.0151 98.5219 28.08C94.0116 31.145 92.8413 37.286 95.9079 41.7931C98.6194 45.7869 103.74 47.1555 108.006 45.2961L111.826 51.4995L114.857 49.4403L111.039 43.2368C114.339 39.9545 114.95 34.6832 112.233 30.6941Z" clip-rule="evenodd"/><path fill="#070707" d="M6.95245 44.5213C8.3722 45.2888 10.5594 45.8644 13.0152 45.8644C18.3872 45.8644 21.1116 43.2935 21.1116 39.7633C21.0732 37.0389 19.6151 35.2354 16.0465 34.0075C13.7442 33.2401 13.0152 32.7413 13.0152 31.8587C13.0152 30.9378 13.821 30.3622 15.2407 30.3622C16.814 30.3622 18.4639 30.9762 19.3081 31.3983L20.3058 27.4076C19.1546 26.832 17.2361 26.2948 15.0489 26.2948C10.4059 26.2948 7.41291 28.9425 7.41291 32.4727C7.37454 34.6598 8.87103 36.7703 12.7849 38.0749C14.9338 38.7656 15.5093 39.2644 15.5093 40.2237C15.5093 41.183 14.7803 41.7586 13.0152 41.7586C11.2884 41.7586 9.06289 41.0295 7.98849 40.3772L6.95245 44.5213Z"/><path fill="#070707" d="M31.4336 45.9027C36.4219 45.9027 41.2951 42.7563 41.2951 35.9261C41.2951 30.2471 37.4579 26.2948 31.7405 26.2948C25.6778 26.2948 21.6872 30.1704 21.6872 36.2331C21.6872 42.2958 25.908 45.9027 31.3952 45.9027H31.4336ZM31.5103 41.7202C29.0545 41.7202 27.7115 39.3028 27.7115 36.118C27.7115 33.3168 28.7859 30.4773 31.5487 30.4773C34.1963 30.4773 35.2707 33.3168 35.2707 36.0796C35.2707 39.4563 33.851 41.7202 31.5487 41.7202H31.5103Z"/><path fill="#070707" d="M42.9834 45.4806H48.8159V34.6598C48.8159 34.1226 48.8543 33.5854 49.0078 33.2017C49.4298 32.1273 50.3891 31.0145 52.0007 31.0145C54.1112 31.0145 54.9554 32.6645 54.9554 35.0819V45.4806H60.7878V34.3912C60.7878 28.8657 57.91 26.2948 54.0728 26.2948C50.9263 26.2948 49.0461 28.0983 48.2787 29.3262H48.1636L47.895 26.7169H42.8299C42.9067 28.4053 42.9834 30.3622 42.9834 32.7029V45.4806Z"/><path fill="#070707" d="M79.1679 34.3912C79.1679 29.9785 77.2109 26.2948 70.9563 26.2948C67.5413 26.2948 64.9704 27.2541 63.6657 27.9832L64.7401 31.7052C65.968 30.9762 68.0017 30.3239 69.9203 30.3239C72.7982 30.3239 73.3354 31.7436 73.3354 32.7413V32.9715C66.6971 32.9715 62.3227 35.2738 62.3227 40.147C62.3227 43.14 64.5866 45.9027 68.3854 45.9027C70.611 45.9027 72.5296 45.0969 73.7575 43.6004H73.8726L74.2179 45.4806H79.4748C79.2446 44.4446 79.1679 42.7179 79.1679 40.9528V34.3912ZM73.5272 38.6505C73.5272 38.9958 73.4889 39.3412 73.4121 39.6482C73.0284 40.8377 71.8005 41.797 70.3808 41.797C69.0761 41.797 68.0785 41.0679 68.0785 39.5714C68.0785 37.3459 70.4575 36.6168 73.5272 36.6168V38.6505Z"/><path fill="#070707" d="M81.8922 45.4806H87.7247V36.0029C87.7247 35.504 87.7631 35.0819 87.8398 34.6982C88.2235 32.8564 89.6817 31.7436 91.8305 31.7436C92.4828 31.7436 92.9433 31.8203 93.4037 31.8971V26.4099C92.9816 26.3332 92.713 26.2948 92.1758 26.2948C90.334 26.2948 88.0701 27.446 87.1108 30.2087H86.9573L86.7271 26.7169H81.7387C81.8539 28.3285 81.8922 30.132 81.8922 32.8947V45.4806Z"/><path fill="#070707" d="M131.477 27.0128H128.101V38.3708C128.101 39.0231 127.985 39.6371 127.794 40.0975C127.18 41.6324 125.606 43.2056 123.342 43.2056C120.311 43.2056 119.198 40.7882 119.198 37.258V27.0128H115.822V37.872C115.822 44.3568 119.313 46.0068 122.23 46.0068C125.53 46.0068 127.525 44.0498 128.369 42.5533H128.446L128.638 45.5847H131.631C131.516 44.1266 131.477 42.4382 131.477 40.4812V27.0128Z"/><path fill="#070707" d="M135.161 40.7882C135.161 42.4382 135.123 44.3184 135.007 45.5847H137.924L138.116 42.5149H138.192C139.612 44.9707 141.722 46.0068 144.408 46.0068C148.553 46.0068 152.773 42.7068 152.773 36.0301C152.773 30.4279 149.55 26.5907 144.946 26.5907C141.953 26.5907 139.804 27.8953 138.614 29.9674H138.538V18.3408H135.161V40.7882ZM138.538 34.8022C138.538 34.265 138.614 33.8046 138.729 33.3825C139.382 30.85 141.531 29.2384 143.833 29.2384C147.44 29.2384 149.358 32.4232 149.358 36.1836C149.358 40.4429 147.286 43.3207 143.718 43.3207C141.3 43.3207 139.305 41.7091 138.653 39.3685C138.576 38.9847 138.538 38.5627 138.538 38.1406V34.8022Z"/><path fill="#070707" d="M170.002 36.9127C170.079 36.529 170.117 36.0301 170.117 35.3395C170.117 31.9244 168.544 26.5907 162.482 26.5907C157.071 26.5907 153.733 31.0035 153.733 36.6057C153.733 42.1696 157.186 45.9684 162.865 45.9684C165.82 45.9684 167.892 45.3161 169.081 44.7789L168.468 42.3615C167.24 42.8987 165.743 43.3208 163.326 43.3208C159.949 43.3208 157.071 41.4405 156.994 36.9127H170.002ZM157.033 34.4953C157.301 32.1546 158.759 29.0081 162.213 29.0081C165.973 29.0081 166.894 32.3465 166.856 34.4953H157.033Z"/></g></g></g></svg>

<svg xmlns="http://www.w3.org/2000/svg" fill="none" aria-hidden="true" viewBox="0 0 206 57"><path fill="#499CD2" d="M193.332 45.528h-2.36c0-19.008-15.685-34.472-34.962-34.472v-2.36c20.58 0 37.322 16.52 37.322 36.832Z"/><path fill="#489CD2" d="M194.962 32.85c-2.831-11.924-12.494-21.877-24.61-25.356l.543-1.891c12.788 3.672 22.987 14.186 25.98 26.791l-1.913.456Zm2.658-11.19c-2.92-6.367-7.898-11.92-14.008-15.634l.817-1.344c6.38 3.879 11.568 9.671 14.618 16.32l-1.427.658Z"/><path fill="#070707" fill-rule="evenodd" d="M107.955 41.963a6.92 6.92 0 0 1-9.603-1.833c-2.144-3.152-1.32-7.46 1.833-9.607 3.151-2.142 7.458-1.319 9.602 1.834 2.146 3.151 1.324 7.46-1.832 9.606Zm4.278-11.269c-3.061-4.512-9.204-5.679-13.711-2.614-4.51 3.065-5.68 9.206-2.614 13.713 2.711 3.994 7.832 5.363 12.098 3.503l3.82 6.204 3.031-2.06-3.818-6.203c3.3-3.282 3.911-8.554 1.194-12.543Z" clip-rule="evenodd"/><path fill="#070707" d="M6.952 44.522c1.42.767 3.607 1.343 6.063 1.343 5.372 0 8.096-2.571 8.096-6.102-.038-2.724-1.496-4.527-5.064-5.755-2.303-.768-3.032-1.267-3.032-2.15 0-.92.806-1.496 2.226-1.496 1.573 0 3.223.614 4.067 1.036l.998-3.99c-1.151-.576-3.07-1.113-5.257-1.113-4.643 0-7.636 2.648-7.636 6.178-.039 2.187 1.458 4.297 5.372 5.602 2.149.69 2.724 1.19 2.724 2.149 0 .96-.729 1.535-2.494 1.535-1.727 0-3.952-.73-5.027-1.382l-1.036 4.145Zm24.481 1.381c4.989 0 9.862-3.147 9.862-9.977 0-5.679-3.837-9.631-9.555-9.631-6.062 0-10.053 3.875-10.053 9.938 0 6.063 4.221 9.67 9.708 9.67h.038Zm.077-4.183c-2.456 0-3.799-2.417-3.799-5.602 0-2.801 1.075-5.64 3.838-5.64 2.647 0 3.722 2.839 3.722 5.602 0 3.376-1.42 5.64-3.722 5.64h-.039Zm11.473 3.76h5.833V34.66c0-.537.038-1.074.192-1.458.422-1.075 1.381-2.187 2.993-2.187 2.11 0 2.954 1.65 2.954 4.067v10.399h5.833V34.39c0-5.525-2.878-8.096-6.715-8.096-3.147 0-5.027 1.803-5.794 3.031h-.116l-.268-2.609H42.83c.077 1.688.153 3.645.153 5.986V45.48Zm36.185-11.089c0-4.412-1.957-8.096-8.212-8.096-3.415 0-5.986.96-7.29 1.688l1.074 3.722c1.228-.729 3.262-1.381 5.18-1.381 2.878 0 3.415 1.42 3.415 2.417v.23c-6.638 0-11.012 2.303-11.012 7.176 0 2.993 2.264 5.756 6.062 5.756 2.226 0 4.144-.806 5.372-2.302h.115l.346 1.88h5.257c-.23-1.036-.307-2.763-.307-4.528V34.39Zm-5.64 4.26c0 .345-.04.69-.116.997-.384 1.19-1.612 2.15-3.031 2.15-1.305 0-2.303-.73-2.303-2.227 0-2.225 2.38-2.954 5.45-2.954v2.034Zm8.364 6.829h5.833v-9.477c0-.499.038-.92.115-1.305.383-1.842 1.842-2.954 3.99-2.954.653 0 1.113.076 1.574.153V26.41a5.805 5.805 0 0 0-1.228-.115c-1.842 0-4.106 1.151-5.065 3.914h-.154l-.23-3.492h-4.988c.115 1.612.153 3.415.153 6.178V45.48Zm49.585-18.467H128.1V38.37c0 .652-.115 1.266-.306 1.727-.614 1.535-2.188 3.108-4.452 3.108-3.031 0-4.144-2.418-4.144-5.948V27.013h-3.376v10.86c0 6.484 3.491 8.134 6.408 8.134 3.3 0 5.295-1.957 6.139-3.454h.077l.192 3.032h2.993c-.115-1.458-.154-3.147-.154-5.104V27.013Zm3.684 13.775c0 1.65-.039 3.53-.154 4.797h2.917l.191-3.07h.077c1.42 2.456 3.53 3.492 6.216 3.492 4.145 0 8.365-3.3 8.365-9.977 0-5.602-3.223-9.44-7.827-9.44-2.993 0-5.142 1.305-6.332 3.378h-.076V18.34h-3.377v22.447Zm3.377-5.986a5.3 5.3 0 0 1 .191-1.42c.653-2.532 2.802-4.143 5.104-4.143 3.607 0 5.525 3.184 5.525 6.945 0 4.259-2.072 7.137-5.64 7.137-2.418 0-4.413-1.612-5.065-3.952a6.33 6.33 0 0 1-.115-1.228v-3.339Zm31.464 2.111c.077-.384.115-.883.115-1.573 0-3.416-1.573-8.75-7.636-8.75-5.41 0-8.748 4.414-8.748 10.016 0 5.564 3.453 9.362 9.132 9.362 2.955 0 5.027-.652 6.216-1.189l-.614-2.417c-1.227.537-2.724.959-5.141.959-3.377 0-6.255-1.88-6.332-6.408h13.008Zm-12.969-2.418c.268-2.34 1.726-5.487 5.18-5.487 3.76 0 4.681 3.339 4.643 5.487h-9.823Z"/></svg>
